symbols/web/view_headline/materialsymbolsrounded/view_headline_wght100gradN25_24px.svg

<svg xmlns="http://www.w3.org/2000/svg" height="24" width="24"><path d="M5.025 14.15q-.125 0-.213-.1-.087-.1-.087-.225t.1-.225q.1-.1.225-.1H19q.1 0 .188.1.087.1.087.225t-.1.225q-.1.1-.2.1Zm0 3.65q-.125 0-.213-.088-.087-.087-.087-.212t.1-.225q.1-.1.225-.1H19q.1 0 .188.1.087.1.087.225t-.1.212q-.1.088-.2.088Zm0-7.325q-.125 0-.213-.088-.087-.087-.087-.212t.1-.225q.1-.1.225-.1H19q.1 0 .188.1.087.1.087.225t-.1.212q-.1.088-.2.088Zm0-3.65q-.125 0-.213-.1-.087-.1-.087-.225t.1-.225q.1-.1.225-.1H19q.1 0 .188.1.087.1.087.225t-.1.225q-.1.1-.2.1Z"/></svg>

<svg xmlns="http://www.w3.org/2000/svg" height="24" width="24"><path d="M5.025 14.15Q4.9 14.15 4.812 14.05Q4.725 13.95 4.725 13.825Q4.725 13.7 4.825 13.6Q4.925 13.5 5.05 13.5H19Q19.1 13.5 19.188 13.6Q19.275 13.7 19.275 13.825Q19.275 13.95 19.175 14.05Q19.075 14.15 18.975 14.15ZM5.025 17.8Q4.9 17.8 4.812 17.712Q4.725 17.625 4.725 17.5Q4.725 17.375 4.825 17.275Q4.925 17.175 5.05 17.175H19Q19.1 17.175 19.188 17.275Q19.275 17.375 19.275 17.5Q19.275 17.625 19.175 17.712Q19.075 17.8 18.975 17.8ZM5.025 10.475Q4.9 10.475 4.812 10.387Q4.725 10.3 4.725 10.175Q4.725 10.05 4.825 9.95Q4.925 9.85 5.05 9.85H19Q19.1 9.85 19.188 9.95Q19.275 10.05 19.275 10.175Q19.275 10.3 19.175 10.387Q19.075 10.475 18.975 10.475ZM5.025 6.825Q4.9 6.825 4.812 6.725Q4.725 6.625 4.725 6.5Q4.725 6.375 4.825 6.275Q4.925 6.175 5.05 6.175H19Q19.1 6.175 19.188 6.275Q19.275 6.375 19.275 6.5Q19.275 6.625 19.175 6.725Q19.075 6.825 18.975 6.825Z"/></svg>
